X: 20843
Q: "Lively."
M: 2/4	% Book has 3/4, but that's clearly wrong.
L: 1/8
K: C
cdef | ga g/e/c | defd | ec d/B/G |\
cdef | g/^f/g/a/ g/e/c | de=fd | cBc2 :|
|:\
dcBA | G/E/C DE | FGAB | cd/c/ B/A/G |\
edcB | Ac G/E/C | DE G/F/E/D/ | CB, C2 :|


